outputs/icons/image/slide_show_sharp.svg

<svg xmlns="http://www.w3.org/2000/svg" width="1200" height="1200" fill="none"><g clip-path="url(#a)"><path fill="#000" d="M500 400v400l250-200zm550-250H150v900h900zM950 950H250V250h700z"/></g><defs><clipPath id="a"><path fill="#fff" d="M0 0h1200v1200H0z"/></clipPath></defs></svg>

<svg width="1200" height="1200" viewBox="0 0 1200 1200" fill="none" xmlns="http://www.w3.org/2000/svg"><g clip-path="url(#clip0_124_536)"><path d="M500 400V800L750 600L500 400ZM1050 150H150V1050H1050V150ZM950 950H250V250H950V950Z" fill="#1D1E23"/></g><defs><clipPath id="clip0_124_536"><path width="24" fill="white" d="M0 0H1200V1200H0V0z"/></clipPath></defs></svg>
